img/logo.svg

<svg width="237" height="58" viewBox="0 0 237 58" fill="none" xmlns="http://www.w3.org/2000/svg">
<path fill-rule="evenodd" clip-rule="evenodd" d="M24.8058 5.61951C21.2076 9.21763 19.1862 14.0977 19.1862 19.1862V0C14.0977 0 9.21763 2.0214 5.61953 5.61951C2.0214 9.21763 0 14.0977 0 19.1862C0 24.2747 2.0214 29.1548 5.61953 32.7529C9.21763 36.3511 14.0977 38.3725 19.1862 38.3725H0C0 43.461 2.0214 48.3411 5.61953 51.9392C9.21763 55.5373 14.0977 57.5587 19.1862 57.5587C24.2747 57.5587 29.1548 55.5373 32.7529 51.9392C36.3511 48.3411 38.3725 43.461 38.3725 38.3725V57.5587C43.461 57.5587 48.3411 55.5373 51.9392 51.9392C55.5373 48.3411 57.5587 43.461 57.5587 38.3725C57.5587 33.2839 55.5373 28.4039 51.9392 24.8057C48.3411 21.2076 43.461 19.1862 38.3725 19.1862H57.5587C57.5587 14.0977 55.5373 9.21763 51.9392 5.61951C48.3411 2.0214 43.461 0 38.3725 0C33.2839 0 28.4039 2.0214 24.8058 5.61951ZM28.7793 38.3725C34.0775 38.3725 38.3725 34.0775 38.3725 28.7793C38.3725 23.4812 34.0775 19.1862 28.7793 19.1862C23.4812 19.1862 19.1862 23.4812 19.1862 28.7793C19.1862 34.0775 23.4812 38.3725 28.7793 38.3725Z" fill="#264FE1"/>
<path d="M99.4358 15.1891V20.9066H86.1973V26.8927H97.2102V32.4951H86.1973V42.3568H79.9426V15.1891H99.4358Z" fill="#020105"/>
<path d="M109.468 36.716H122.63V42.3568H103.213V15.1891H109.468V36.716Z" fill="#020105"/>
<path d="M131.833 26.4706C132.882 24.5776 133.918 22.6973 134.941 20.8299C135.99 18.9624 137.052 17.0821 138.126 15.1891H145.187L134.903 32.2265V42.3568H128.648V32.2648L118.249 15.1891H125.463L131.833 26.4706Z" fill="#020105"/>
<path d="M157.174 34.9042V42.1962H154.78V22.7416H162.072C163.136 22.7416 164.099 22.8517 164.961 23.0719C165.824 23.292 166.557 23.6405 167.163 24.1175C167.768 24.5945 168.227 25.2274 168.539 26.0162C168.869 26.7867 169.034 27.7222 169.034 28.8229C169.034 29.6301 168.915 30.3547 168.676 30.9968C168.438 31.6205 168.117 32.1708 167.713 32.6478C167.328 33.1064 166.869 33.4917 166.337 33.8035C165.805 34.097 165.255 34.3263 164.686 34.4914L168.759 42.1962H166.145L162.265 34.9042H157.174ZM161.302 32.7304C162.017 32.7304 162.687 32.6753 163.31 32.5652C163.952 32.4552 164.512 32.2534 164.989 31.9599C165.466 31.6664 165.842 31.2719 166.117 30.7766C166.411 30.263 166.567 29.5842 166.585 28.7404C166.585 27.3462 166.172 26.3647 165.347 25.796C164.539 25.209 163.365 24.9155 161.824 24.9155H157.174V32.7304H161.302Z" fill="#020105"/>
<path d="M184.779 27.6947V42.1962H182.826L182.66 40.1049C182.404 40.5269 182.083 40.8846 181.697 41.1781C181.33 41.4716 180.927 41.7193 180.487 41.9211C180.065 42.1045 179.615 42.2329 179.138 42.3063C178.68 42.398 178.23 42.4439 177.79 42.4439C176.744 42.4439 175.864 42.2788 175.148 41.9486C174.433 41.6184 173.855 41.1598 173.415 40.5727C172.974 39.9673 172.663 39.2611 172.479 38.4539C172.296 37.6467 172.204 36.757 172.204 35.7847V27.6947H174.543V35.1794C174.543 35.8398 174.57 36.4818 174.625 37.1056C174.699 37.7293 174.855 38.2796 175.093 38.7566C175.35 39.2336 175.717 39.6188 176.194 39.9123C176.671 40.2058 177.322 40.3618 178.148 40.3801C178.973 40.3801 179.67 40.2058 180.239 39.8573C180.808 39.5087 181.257 39.0685 181.587 38.5365C181.936 37.9861 182.165 37.3807 182.275 36.7203C182.385 36.0599 182.44 35.3812 182.44 34.6841V27.6947H184.779Z" fill="#020105"/>
<path d="M194.078 29.6209C193.766 29.6209 193.409 29.6484 193.005 29.7035C192.602 29.7402 192.216 29.8319 191.849 29.9786C191.501 30.1071 191.207 30.3088 190.969 30.584C190.73 30.8592 190.611 31.2261 190.611 31.6847C190.629 32.2167 190.85 32.6295 191.272 32.923C191.712 33.2165 192.29 33.4458 193.005 33.6109C193.335 33.6843 193.721 33.7577 194.161 33.831C194.619 33.9044 195.078 33.9778 195.537 34.0512C195.995 34.1062 196.417 34.1704 196.802 34.2438C197.206 34.3172 197.527 34.3814 197.766 34.4364C198.664 34.6932 199.316 35.1243 199.719 35.7297C200.123 36.3351 200.325 37.0597 200.325 37.9036C200.325 38.8025 200.16 39.5179 199.829 40.0499C199.499 40.5635 199.077 40.9946 198.564 41.3432C197.885 41.7468 197.197 42.022 196.5 42.1687C195.803 42.2971 195.078 42.3613 194.326 42.3613C193.482 42.3613 192.712 42.288 192.015 42.1412C191.317 41.9944 190.675 41.7651 190.088 41.4533C189.501 41.1414 188.997 40.7287 188.575 40.215C188.171 39.7013 187.914 39.0501 187.804 38.2613H190.171C190.318 38.6832 190.556 39.0318 190.886 39.3069C191.235 39.5638 191.611 39.7656 192.015 39.9123C192.418 40.0591 192.813 40.16 193.198 40.215C193.601 40.2517 193.932 40.27 194.188 40.27C194.61 40.27 195.014 40.2517 195.399 40.215C195.803 40.1783 196.197 40.0958 196.582 39.9673C196.968 39.8206 197.298 39.6096 197.573 39.3345C197.848 39.0593 197.986 38.6924 197.986 38.2338C197.986 37.6284 197.811 37.1881 197.463 36.9129C197.133 36.6378 196.656 36.436 196.032 36.3076C195.592 36.2158 195.096 36.1333 194.546 36.0599C193.996 35.9682 193.436 35.8765 192.868 35.7847C192.317 35.6747 191.776 35.5463 191.244 35.3995C190.73 35.2528 190.281 35.0601 189.896 34.8217C189.4 34.5281 189.006 34.1337 188.712 33.6384C188.437 33.1431 188.3 32.4919 188.3 31.6847C188.318 30.8592 188.511 30.1713 188.878 29.6209C189.263 29.0706 189.74 28.6487 190.308 28.3551C190.895 28.0433 191.528 27.8323 192.207 27.7222C192.886 27.5938 193.592 27.5296 194.326 27.5296C195.225 27.548 195.986 27.6489 196.61 27.8323C197.252 28.0158 197.811 28.3001 198.288 28.6853C198.765 29.0522 199.123 29.4833 199.362 29.9786C199.6 30.4556 199.747 30.9417 199.802 31.437H197.656C197.619 31.1435 197.481 30.8775 197.243 30.6391C197.004 30.3822 196.729 30.1896 196.417 30.0612C196.124 29.9144 195.766 29.8044 195.344 29.731C194.922 29.6576 194.5 29.6209 194.078 29.6209Z" fill="#020105"/>
<path d="M208.992 29.6209C208.68 29.6209 208.323 29.6484 207.919 29.7035C207.516 29.7402 207.13 29.8319 206.763 29.9786C206.415 30.1071 206.121 30.3088 205.883 30.584C205.644 30.8592 205.525 31.2261 205.525 31.6847C205.544 32.2167 205.764 32.6295 206.186 32.923C206.626 33.2165 207.204 33.4458 207.919 33.6109C208.249 33.6843 208.635 33.7577 209.075 33.831C209.534 33.9044 209.992 33.9778 210.451 34.0512C210.909 34.1062 211.331 34.1704 211.717 34.2438C212.12 34.3172 212.441 34.3814 212.68 34.4364C213.579 34.6932 214.23 35.1243 214.633 35.7297C215.037 36.3351 215.239 37.0597 215.239 37.9036C215.239 38.8025 215.074 39.5179 214.743 40.0499C214.413 40.5635 213.991 40.9946 213.478 41.3432C212.799 41.7468 212.111 42.022 211.414 42.1687C210.717 42.2971 209.992 42.3613 209.24 42.3613C208.396 42.3613 207.626 42.288 206.929 42.1412C206.231 41.9944 205.589 41.7651 205.002 41.4533C204.415 41.1414 203.911 40.7287 203.489 40.215C203.085 39.7013 202.829 39.0501 202.718 38.2613H205.085C205.232 38.6832 205.47 39.0318 205.8 39.3069C206.149 39.5638 206.525 39.7656 206.929 39.9123C207.332 40.0591 207.727 40.16 208.112 40.215C208.515 40.2517 208.846 40.27 209.102 40.27C209.524 40.27 209.928 40.2517 210.313 40.215C210.717 40.1783 211.111 40.0958 211.496 39.9673C211.882 39.8206 212.212 39.6096 212.487 39.3345C212.762 39.0593 212.9 38.6924 212.9 38.2338C212.9 37.6284 212.725 37.1881 212.377 36.9129C212.047 36.6378 211.57 36.436 210.946 36.3076C210.506 36.2158 210.01 36.1333 209.46 36.0599C208.91 35.9682 208.35 35.8765 207.782 35.7847C207.231 35.6747 206.69 35.5463 206.158 35.3995C205.644 35.2528 205.195 35.0601 204.81 34.8217C204.314 34.5281 203.92 34.1337 203.627 33.6384C203.351 33.1431 203.214 32.4919 203.214 31.6847C203.232 30.8592 203.425 30.1713 203.792 29.6209C204.177 29.0706 204.654 28.6487 205.222 28.3551C205.81 28.0433 206.442 27.8323 207.121 27.7222C207.8 27.5938 208.506 27.5296 209.24 27.5296C210.139 27.548 210.9 27.6489 211.524 27.8323C212.166 28.0158 212.725 28.3001 213.202 28.6853C213.679 29.0522 214.037 29.4833 214.276 29.9786C214.514 30.4556 214.661 30.9417 214.716 31.437H212.57C212.533 31.1435 212.395 30.8775 212.157 30.6391C211.918 30.3822 211.643 30.1896 211.331 30.0612C211.038 29.9144 210.68 29.8044 210.258 29.731C209.836 29.6576 209.414 29.6209 208.992 29.6209Z" fill="#020105"/>
<path d="M220.302 22.3839C220.76 22.3839 221.136 22.5307 221.43 22.8242C221.742 23.0994 221.898 23.4663 221.898 23.9249C221.898 24.3835 221.742 24.7596 221.43 25.0531C221.136 25.3466 220.76 25.4934 220.302 25.4934C219.861 25.4934 219.485 25.3466 219.173 25.0531C218.88 24.7596 218.733 24.3835 218.733 23.9249C218.733 23.4663 218.88 23.0994 219.173 22.8242C219.485 22.5307 219.861 22.3839 220.302 22.3839ZM219.146 42.1962V29.7585H216.779V27.6947H221.485V42.1962H219.146Z" fill="#020105"/>
<path d="M234.716 40.4351C234.019 41.1322 233.212 41.6275 232.295 41.9211C231.524 42.1962 230.653 42.3338 229.68 42.3338C229.02 42.3338 228.415 42.2604 227.864 42.1137C227.314 41.9669 226.81 41.7284 226.351 41.3982C225.892 41.068 225.525 40.6461 225.25 40.1324C224.993 39.6188 224.865 38.9951 224.865 38.2613C224.865 37.6559 224.966 37.1239 225.168 36.6653C225.388 36.2067 225.681 35.8214 226.048 35.5096C226.415 35.1794 226.819 34.9134 227.259 34.7116C227.699 34.4914 228.222 34.308 228.827 34.1612C229.616 33.9961 230.506 33.8586 231.497 33.7485C232.487 33.6384 233.56 33.5283 234.716 33.4183C234.716 32.2442 234.423 31.3178 233.836 30.6391C233.267 29.9603 232.405 29.6117 231.249 29.5934C230.515 29.5934 229.855 29.7126 229.268 29.9511C228.699 30.1896 228.259 30.6299 227.947 31.2719H225.47C225.599 30.6115 225.856 30.0428 226.241 29.5659C226.626 29.0889 227.085 28.7037 227.617 28.4102C228.149 28.0983 228.727 27.8782 229.35 27.7498C229.992 27.603 230.616 27.5296 231.221 27.5296C232.34 27.5296 233.267 27.7039 234.001 28.0524C234.753 28.3827 235.349 28.8504 235.789 29.4558C236.23 30.0428 236.541 30.7491 236.725 31.5746C236.908 32.4001 237 33.299 237 34.2713V42.1962H234.909L234.716 40.4351ZM227.204 38.1787C227.204 38.619 227.305 38.9859 227.507 39.2794C227.708 39.5729 227.956 39.7931 228.25 39.9398C228.543 40.0866 228.837 40.1875 229.13 40.2425C229.442 40.2792 229.735 40.2976 230.011 40.2976C230.671 40.2976 231.258 40.215 231.772 40.0499C232.304 39.8664 232.799 39.6188 233.258 39.3069C233.698 39.0134 234.047 38.6465 234.303 38.2063C234.579 37.766 234.716 37.1331 234.716 36.3076V35.3445C234.478 35.3812 233.753 35.4729 232.542 35.6196C231.35 35.7481 230.543 35.849 230.121 35.9223C229.203 36.0507 228.488 36.3076 227.974 36.6928C227.461 37.0781 227.204 37.5734 227.204 38.1787Z" fill="#020105"/>
</svg>

<svg xmlns="http://www.w3.org/2000/svg" fill="none"><path fill="#264FE1" fill-rule="evenodd" d="M24.806 5.62a19.186 19.186 0 0 0-5.62 13.566V0a19.186 19.186 0 1 0 0 38.373H0a19.186 19.186 0 1 0 38.373 0v19.186a19.186 19.186 0 1 0 0-38.373h19.186A19.186 19.186 0 0 0 24.806 5.62Zm3.973 32.753a9.593 9.593 0 1 0 0-19.187 9.593 9.593 0 0 0 0 19.187Z" clip-rule="evenodd"/><path fill="#020105" d="M99.436 15.19v5.717H86.198v5.986H97.21v5.602H86.197v9.862h-6.255V15.189h19.493ZM109.468 36.716h13.162v5.64h-19.416V15.19h6.254v21.527ZM131.834 26.47c1.048-1.892 2.084-3.773 3.108-5.64 1.049-1.868 2.11-3.748 3.185-5.64h7.06l-10.284 17.037v10.13h-6.254V32.265L118.25 15.189h7.214l6.37 11.282ZM157.174 34.904v7.292h-2.394V22.742h7.292c1.064 0 2.027.11 2.889.33.862.22 1.596.569 2.201 1.046.606.477 1.064 1.11 1.376 1.898.331.77.496 1.706.496 2.807 0 .807-.12 1.532-.358 2.174a5.687 5.687 0 0 1-.963 1.65 5.24 5.24 0 0 1-1.376 1.157 8.057 8.057 0 0 1-1.651.687l4.072 7.705h-2.614l-3.88-7.292h-5.09Zm4.127-2.174c.716 0 1.385-.055 2.009-.165.642-.11 1.202-.312 1.679-.605a3.174 3.174 0 0 0 1.128-1.183c.293-.514.449-1.193.468-2.037 0-1.394-.413-2.375-1.239-2.944-.807-.587-1.981-.88-3.522-.88h-4.65v7.814h4.127ZM184.779 27.695v14.501h-1.954l-.165-2.091a3.86 3.86 0 0 1-.963 1.073 5.78 5.78 0 0 1-1.211.743 5.442 5.442 0 0 1-1.348.385 6.869 6.869 0 0 1-1.348.138c-1.046 0-1.927-.165-2.642-.495a4.464 4.464 0 0 1-1.734-1.376c-.44-.606-.752-1.312-.935-2.12a12.021 12.021 0 0 1-.275-2.668v-8.09h2.339v7.484c0 .66.027 1.303.082 1.927.074.623.229 1.174.468 1.65.257.478.624.863 1.101 1.156.477.294 1.128.45 1.953.468.826 0 1.523-.174 2.092-.523a4.044 4.044 0 0 0 1.348-1.32 4.84 4.84 0 0 0 .688-1.817c.11-.66.165-1.339.165-2.036v-6.99h2.339ZM194.078 29.62c-.312 0-.67.028-1.073.083a4.094 4.094 0 0 0-1.156.276 2.11 2.11 0 0 0-.88.605c-.239.275-.358.642-.358 1.1.018.533.238.945.66 1.239.441.294 1.018.523 1.734.688.33.073.715.147 1.156.22l1.375.22c.459.055.881.12 1.266.193.404.073.725.137.963.192.899.257 1.55.688 1.954 1.294.404.605.605 1.33.605 2.174 0 .898-.165 1.614-.495 2.146-.33.514-.752.945-1.266 1.293a6.743 6.743 0 0 1-2.063.826 11.99 11.99 0 0 1-2.174.192c-.844 0-1.615-.073-2.312-.22a7.28 7.28 0 0 1-1.926-.688 4.937 4.937 0 0 1-1.513-1.238c-.404-.514-.661-1.165-.771-1.954h2.367c.146.422.385.77.715 1.046.349.257.725.459 1.128.605.404.147.798.248 1.184.303.403.037.733.055.99.055.422 0 .826-.018 1.211-.055.403-.037.798-.12 1.183-.248.385-.146.716-.357.991-.633.275-.275.412-.642.412-1.1 0-.606-.174-1.046-.522-1.321-.331-.275-.808-.477-1.431-.605a20.923 20.923 0 0 0-1.486-.248c-.55-.092-1.11-.184-1.679-.275-.55-.11-1.091-.239-1.623-.385a5.346 5.346 0 0 1-1.349-.578 3.33 3.33 0 0 1-1.183-1.184c-.275-.495-.413-1.146-.413-1.953.019-.826.211-1.514.578-2.064.386-.55.863-.972 1.431-1.266a6.1 6.1 0 0 1 1.899-.633 11.381 11.381 0 0 1 2.119-.192c.899.018 1.66.119 2.284.302a4.685 4.685 0 0 1 1.678.853c.477.367.835.798 1.073 1.294.239.477.386.963.441 1.458h-2.147c-.036-.294-.174-.56-.412-.798a2.33 2.33 0 0 0-.826-.578 3.9 3.9 0 0 0-1.073-.33 7.375 7.375 0 0 0-1.266-.11ZM208.992 29.62c-.312 0-.669.028-1.073.083a4.094 4.094 0 0 0-1.156.276 2.11 2.11 0 0 0-.88.605c-.239.275-.358.642-.358 1.1.018.533.238.945.66 1.239.441.294 1.018.523 1.734.688.33.073.715.147 1.156.22l1.376.22c.458.055.88.12 1.265.193.404.073.725.137.963.192.899.257 1.551.688 1.954 1.294.404.605.605 1.33.605 2.174 0 .898-.165 1.614-.495 2.146-.33.514-.752.945-1.266 1.293a6.743 6.743 0 0 1-2.063.826 11.99 11.99 0 0 1-2.174.192c-.844 0-1.615-.073-2.312-.22a7.28 7.28 0 0 1-1.926-.688 4.937 4.937 0 0 1-1.513-1.238c-.404-.514-.661-1.165-.771-1.954h2.367c.146.422.385.77.715 1.046.349.257.725.459 1.128.605.404.147.798.248 1.184.303.403.037.733.055.99.055.422 0 .826-.018 1.211-.055.403-.037.798-.12 1.183-.248.385-.146.716-.357.991-.633.275-.275.413-.642.413-1.1 0-.606-.175-1.046-.523-1.321-.331-.275-.807-.477-1.431-.605-.44-.092-.936-.175-1.486-.248-.55-.092-1.11-.184-1.679-.275-.55-.11-1.091-.239-1.623-.385a5.323 5.323 0 0 1-1.348-.578 3.326 3.326 0 0 1-1.184-1.184c-.275-.495-.412-1.146-.412-1.953.018-.826.21-1.514.577-2.064.386-.55.863-.972 1.431-1.266a6.1 6.1 0 0 1 1.899-.633 11.381 11.381 0 0 1 2.119-.192c.899.018 1.66.119 2.284.302a4.685 4.685 0 0 1 1.678.853c.477.367.835.798 1.073 1.294.239.477.386.963.441 1.458h-2.147c-.036-.294-.174-.56-.412-.798a2.33 2.33 0 0 0-.826-.578 3.89 3.89 0 0 0-1.073-.33 7.375 7.375 0 0 0-1.266-.11ZM220.301 22.384c.459 0 .835.147 1.129.44.311.275.467.642.467 1.1 0 .46-.156.836-.467 1.13-.294.293-.67.44-1.129.44-.44 0-.816-.147-1.128-.44-.293-.294-.44-.67-.44-1.13 0-.458.147-.825.44-1.1.312-.293.688-.44 1.128-.44Zm-1.155 19.812V29.76h-2.367v-2.064h4.706v14.501h-2.339ZM234.716 40.435a5.943 5.943 0 0 1-2.422 1.486c-.77.275-1.642.413-2.614.413-.66 0-1.266-.074-1.816-.22a4.59 4.59 0 0 1-1.513-.716 3.667 3.667 0 0 1-1.101-1.266c-.257-.513-.385-1.137-.385-1.87 0-.606.101-1.138.302-1.597a3.47 3.47 0 0 1 .881-1.155c.367-.33.77-.597 1.211-.798.44-.22.963-.404 1.568-.55a28.517 28.517 0 0 1 2.669-.413c.991-.11 2.064-.22 3.22-.33 0-1.175-.294-2.101-.881-2.78-.568-.679-1.431-1.027-2.586-1.046-.734 0-1.395.12-1.982.358-.568.239-1.009.679-1.32 1.32h-2.477c.129-.66.385-1.228.771-1.705a4.62 4.62 0 0 1 1.375-1.156 5.657 5.657 0 0 1 1.734-.66 8.385 8.385 0 0 1 1.871-.22c1.119 0 2.046.174 2.779.522.753.33 1.349.798 1.789 1.404.44.587.752 1.293.936 2.119.183.825.275 1.724.275 2.696v7.925h-2.092l-.192-1.76Zm-7.512-2.256c0 .44.101.807.302 1.1.202.294.45.514.743.66.294.148.587.248.881.303.312.037.605.056.88.056.661 0 1.248-.083 1.762-.248a6.24 6.24 0 0 0 1.485-.743c.441-.294.789-.66 1.046-1.1.275-.441.413-1.074.413-1.9v-.963c-.239.037-.963.129-2.174.276-1.192.128-2 .229-2.422.302-.917.129-1.632.386-2.146.77-.513.386-.77.881-.77 1.487Z"/></svg>
